X: 106
T:Muiñeira de Milladas
M:6/8
L:1/8
Q:200
C:Trad
S:Rep. "Os Morenos" de Lavadores
R:Muiñeira
K:C
EFG/2"F."c/2 | G3 EFG/2"F."c/2 | G3 EFG/2"F."c/2 | GFG ABA | F3 DEF/2"F.
"c/2 |
 F3 DEF/2"F."c/2 | F3 DEF/2"F."c/2 | FEF GAG |1 E2 "F."c :|2 EDE FGF| ED
E FGF |E3 G3 | E3 "F."cEF | GAG FGF | EFE DEF |
ABA GAG | FED- DFG | AGF AGF | GFE GFE | FED FED | G3- GFG | AGF AGF |
GFE GFE | FED FGF | E3 "F."cEF | GAG FGF | EFE DEF | ABA GAG | FED- DFG|
AGF AGF | E2 G cBA | GAG FED |: {B,}C2 "F."G CEG | cBc dcB | "~"A2 G EFG
 | {C}GAG DEF |
{C}"~"F2E CEG | cBc dcB | "~"A2G EFG |BAG FED :| {B,}C3 ||

